X:20
T: ACH HAMELN DU WUNDERSCHOENE STADT
N: Z0021
O: Europa, Mitteleuropa, Deutschland, Westfalen
R: Sagen - Lied, Romanze
M: 2/4
L: 1/16
K: C
G,2 | C2B,2C2D2 | C2B,2C2
D2 | E2F2D2E2 | C4z2
D2 | E2D2E2F2 | G4F2
E2 | D2C2D2E2 | D4z2
G,2 | C2B,2C2D2 | C2B,2C2
D2 | E2F2D2E2 | C4z2
D2 | E2D2E2F2 | G4F2
E2 | D2C2D2E2 | D4z2
EF | G2G2G2G2 | A6
G2 | F2E2F2D2 | G6
F2 | E2D2E2G2 | G2F2F2
E2 | D2C2D2E2 | C4z2

@@@ Tune index: 9778
